!!!COM: Palestrina, Giovanni Perluigi da
!!!OPR: Missa In semidupl. maj. (I)
!!!OMD: Gloria
!!!OTL: First Section
**kern	**kern	**kern	**kern	**kern
*Ibass	*Itenor	*Itenor	*Icalto	*Icant
!Bassus	!Tenor 2	!Tenor 1	!Altus	!Cantus
*clefF4	*clefGv2	*clefGv2	*clefG2	*clefG2
*k[b-]	*k[b-]	*k[b-]	*k[b-]	*k[b-]
*F:ion	*F:ion	*F:ion	*F:ion	*F:ion
*M4/2	*M4/2	*M4/2	*M4/2	*M4/2
=1	=1	=1	=1	=1
1r	0r	0r	0c	0r
[1F	.	.	.	.
=2	=2	=2	=2	=2
1F]	0r	0r	1d	0r
1G	.	.	1e	.
=3	=3	=3	=3	=3
1A	0r	0r	1c	0r
1F	.	.	2.f	.
.	.	.	4e	.
=4	=4	=4	=4	=4
1.B-	0r	1r	4d	0f
.	.	.	4c	.
.	.	.	2.d	.
.	.	[1B-	.	.
.	.	.	4e	.
2A	.	.	[2f	.
=5	=5	=5	=5	=5
1G	0r	1B-]	2f]	1g
.	.	.	2e	.
1F	.	1c	1f	1a
=6	=6	=6	=6	=6
1r	0r	1d	2.B-	1f
.	.	.	4c	.
1G	.	1B-	2d	[1b-
.	.	.	2G	.
=7	=7	=7	=7	=7
0E-	0r	1.e-	2B-	2b-]
.	.	.	1c	2a
.	.	.	.	1g
.	.	2d	[2B-	.
=8	=8	=8	=8	=8
1F	1r	1c	2B-]	1f
.	.	.	2A	.
2.BB-	[1F	1B-	2B-	2.d
.	.	.	[2d	.
4C	.	.	.	4e
=9	=9	=9	=9	=9
4D	1F]	2.A	2d]	4f
4E	.	.	.	4g
1F	.	.	2c	2a
.	.	4B-	.	.
.	1G	2c	1c	1g
2E	.	2C	.	.
=10	=10	=10	=10	=10
0D	1A	2.F	[0d	2f
.	.	.	.	4d
.	.	4G	.	4e
.	1F	1A	.	4f
.	.	.	.	4g
.	.	.	.	2a
=11	=11	=11	=11	=11
0BB-	1.B-	1.D	0d]	4g
.	.	.	.	4f
.	.	.	.	4b-
.	.	.	.	4a
.	.	.	.	4g
.	.	.	.	4f
.	2A	2D	.	[2f
=12	=12	=12	=12	=12
0C	0G	4E	0c	2f]
.	.	4C	.	.
.	.	2.c	.	4e
.	.	.	.	4d
.	.	.	.	1e
.	.	4B-	.	.
.	.	2G	.	.
=13	=13	=13	=13	=13
[0FF	[0F	[0A	[0c	[0f
=14	=14	=14	=14	=14
0FF]	0F]	0A]	0c]	0f]
*-	*-	*-	*-	*-
!!!CDT: 1525/^1526/-1594/2/2
!!!OCY: Italia
!!!AGN: Mass (Paraphrase)
!!!AST: renaissance, vocal
!!!ASW: Gregorian Mass
!!!PWK: Masses, Book Mantuan II
!!!RNB: Cadence finals: C
!!!YOR: Le Opere Complete, v. 19, p. 129
!!!YOO: Rome, Italy: Fratelli Scalera
!!!END: 1992//
!!!EED: John Miller
!!!YEC: Copyright 2000, John Miller
!!!YEN: United States of America
!!!YEM: Rights to all derivative electronic formats reserved.
!!!YEM: Refer to licensing agreement for further details.
!!!YEM: This file must be accompanied by the licensing agreement.
!!!YEM: A copy of the licensing agreement may be found at http://www.music-cog.ohio-state.edu/HumdrumDatabases/Palestrina/license.txt
!!!EMD: converted to Humdrum by Bret Aarden
